!!!!SEGMENT: pl-wtm--r-1726--005_stefani-jozef--piekna-dziewczyna-z-gandawy-kontredans.krn
!!!cenid: 18xx:1891
!!!COM: Stefani, Józef
!!!COM-rismid: pe30024097
!!!CDT: 1800/04/16-1876/03/19
!!!CNT: Polish
!!!GTL: Piękna dziewczyna z Gandawy
!!!OTL: Kontredans [5]
!!!PDT:
!!!AGN: Secular
!!!SMS-siglum: PL-Wtm
!!!SMS-shelfmark: R 1726
!!!SMS-shelfwork: 005 G
!!!SMS-variant:
!!!SMS-altvar:
!!!NIFC-rismid: 1001129104
!!!URL-scan: http://repozytorium.nifc.pl/skany/pl-wtm-nut--r1726
!!!ONB-nifc: UWAGA: No. 5. Partie perkusji zapisane osobno na końcu rękopisu
**kern	**dynam	**kern	**dynam	**kern	**dynam	**kern	**dynam	**kern	**dynam	**kern	**dynam	**kern	**dynam	**kern	**kern	**dynam	**kern	**dynam	**kern	**dynam	**kern	**dynam
*part12	*part12	*part11	*part11	*part10	*part10	*part9	*part9	*part8	*part8	*part7	*part7	*part6	*part6	*part5	*part4	*part4	*part3	*part3	*part2	*part2	*part1	*part1
*staff12	*	*staff11	*	*staff10	*	*staff9	*	*staff8	*	*staff7	*	*staff6	*	*staff5	*staff4	*	*staff3	*	*staff2	*	*staff1	*
*I"G[ran]. C[assa].	*	*I"Triangolo	*	*I"Timpani	*	*I"Basſi	*	*I"Viole	*	*I"Violino 2o	*	*I"Violino I	*	*I"Trombone	*I"in C Trombe Chromatique	*	*I"in d: Corni	*	*I"in C Clarinetti	*	*I"Picolo Flauto	*
*I'grancassa	*	*I'triangolo	*	*I'timp	*	*I'b	*	*I'vla	*	*I'vl 2	*	*I'vl 1	*	*I'trb	*I'tr crom in C	*	*I'cor in D	*	*I'cl in C	*	*I'fl.picc	*
*clefF4	*	*clefG2	*	*clefF4	*	*clefF4	*	*clefC3	*	*clefG2	*	*clefG2	*	*clefF4	*clefG2	*	*clefG2	*	*clefG2	*	*clefG2	*
*	*	*	*	*	*	*	*	*	*	*	*	*	*	*	*	*	*ITrd6c10	*	*	*	*ITrd0c0	*
*k[f#]	*	*k[f#]	*	*k[f#]	*	*k[f#c#]	*	*k[f#c#]	*	*k[f#c#]	*	*k[f#c#]	*	*k[f#]	*k[]	*	*k[f#c#]	*	*k[f#]	*	*k[f#]	*
*G:	*	*G:	*	*G:	*	*G:	*	*G:	*	*G:	*	*G:	*	*G:	*G:	*	*G:	*	*G:	*	*G:	*
*M6/8	*	*M6/8	*	*M6/8	*	*M6/8	*	*M6/8	*	*M6/8	*	*M6/8	*	*M6/8	*M6/8	*	*M6/8	*	*M6/8	*	*M6/8	*
*>[A,B,B]	*	*	*	*	*	*	*	*	*	*	*	*	*	*	*	*	*	*	*	*	*	*
=1	=1	=1	=1	=1	=1	=1	=1	=1	=1	=1	=1	=1	=1	=1	=1	=1	=1	=1	=1	=1	=1	=1
*>A	*	*	*	*	*	*	*	*	*	*	*	*	*	*	*	*	*	*	*	*	*	*
!	!	!	!	!	!	!	!LO:DY:rj	!	!LO:DY:rj	!	!	!	!	!	!	!	!	!	!	!	!	!
.	.	.	.	.	.	(16qqD/LL	f	(16qqd/LL	f	(16qqd/LL	f	(16qqdd/LL	f	.	.	.	.	.	(16qqdd/LL	.	(16qqddd/LL	f
.	.	.	.	.	.	16qqE/	.	16qqe/	.	16qqe/	.	16qqee/	.	.	.	.	.	.	16qqee/	.	16qqeee/	.
!	!	!	!	!	!	!	!	!	!	!	!	!	!	!	!	!	!	!	!	!	!LO:TX:t=P:problem:flet i piccolo na jednej pięciolinii. Zapisuję w odpowiednich strojach	!
!	!	!	!	!	!	!	!	!	!	!	!	!	!	!	!	!	!	!	!	!	!LO:TX:t=P:problem:all\right:global	!
!	!	!	!	!	!	!LO:SIC:v:t=błędne oznaczenie tonacji:s=F#	!	!LO:SIC:v:t=błędne oznaczenie tonacji:s=f#	!	!LO:SIC:v:t=błędne oznaczenie tonacji:s=ff#	!	!LO:SIC:v:t=błędne oznaczenie tonacji:s=ff#	!	!	!	!	!	!	!	!	!LO:TX:a:t=No 5.	!
.	.	.	.	.	.	16qqF#/JJ	.	16qqf#/JJ	.	16qqf#/JJ	.	16qqff#/JJ	.	.	.	.	.	.	16qqff#/JJ	.	16qqfff#/JJ	.
8C/	.	8ee\	f	8D\	f	8G\)	.	8g\)	.	8g/)	.	8gg\)	.	2.r	2.r	.	2.ryy	.	8gg\)	.	8ggg\)	.
8r	.	8r	.	8r	.	8r	.	8G/L	.	8dL 8B/	.	8r	.	.	.	.	.	.	8r	.	8r	.
8r	.	8r	.	8r	.	8r	.	8G/J	.	8dJ 8B/	.	8r	.	.	.	.	.	.	8r	.	8r	.
!	!	!	!	!	!	!	!	!	!	!	!LO:HP:a	!	!	!	!	!	!	!	!	!	!	!
4r	.	4r	.	4r	.	8GG/	.	8r	>	8r	>	4r	.	.	.	.	.	.	4r	.	4r	.
.	.	.	.	.	.	8r	.	8G/L	.	8dL 8B/	.	.	.	.	.	.	.	.	.	.	.	.
8r	.	8r	.	8r	.	8r	.	8G/J	.	8dJ 8B/	.	8r	.	.	.	.	.	.	8r	.	8r	.
=2	=2	=2	=2	=2	=2	=2	=2	=2	=2	=2	=2	=2	=2	=2	=2	=2	=2	=2	=2	=2	=2	=2
!LO:TX:a:t=8.	!	!LO:TX:a:t=8.	!	!LO:TX:a:t=8.	!	!	!	!	!	!	!	!	!	!	!LO:TX:rj:a:t=Tromba Solo	!	!	!	!	!	!	!
2.r	.	2.r	.	2.r	.	8GG/	.	8r	.	8r	.	2.r	.	2.r	4r	.	2.ryy	.	2.r	.	2.r	.
.	.	.	.	.	.	8r	.	8G/L	.	8dL 8B/	.	.	.	.	.	.	.	.	.	.	.	.
.	.	.	.	.	.	8r	.	8G/J	.	8dJ 8B/	.	.	.	.	8r	.	.	.	.	.	.	.
!	!	!	!	!	!	!	!LO:DY:rj	!	!	!	!LO:DY:a	!	!	!	!	!	!	!	!	!	!	!
.	.	.	.	.	.	8G\	p	8r	]	8r	] p	.	.	.	8r	.	.	.	.	.	.	.
.	.	.	.	.	.	8r	.	8G/L	.	8dL 8B/	.	.	.	.	8e'/L	.	.	.	.	.	.	.
.	.	.	.	.	.	8r	.	8G/J	.	8dJ 8B/	.	.	.	.	[8d/J	.	.	.	.	.	.	.
=3	=3	=3	=3	=3	=3	=3	=3	=3	=3	=3	=3	=3	=3	=3	=3	=3	=3	=3	=3	=3	=3	=3
2.r	.	2.r	.	2.r	.	8GG/	.	8r	.	8r	.	2.r	.	2.r	8d/L]	.	2.ryy	.	2.r	.	2.r	.
.	.	.	.	.	.	8r	.	8G/L	.	8dL 8B/	.	.	.	.	8b'/	.	.	.	.	.	.	.
.	.	.	.	.	.	8r	.	8G/J	.	8dJ 8B/	.	.	.	.	8g'/J	.	.	.	.	.	.	.
*	*	*	*	*	*	*	*	*	*	*rep	*	*	*	*	*	*	*	*	*	*	*	*
.	.	.	.	.	.	8G\	.	8r	.	8r	.	.	.	.	4dd\	.	.	.	.	.	.	.
.	.	.	.	.	.	8r	.	8G/L	.	8dL 8B/	.	.	.	.	.	.	.	.	.	.	.	.
.	.	.	.	.	.	8r	.	8G/J	.	8dJ 8B/	.	.	.	.	8ee\	.	.	.	.	.	.	.
*	*	*	*	*	*	*	*	*	*	*Xrep	*	*	*	*	*	*	*	*	*	*	*	*
=4	=4	=4	=4	=4	=4	=4	=4	=4	=4	=4	=4	=4	=4	=4	=4	=4	=4	=4	=4	=4	=4	=4
*	*	*	*	*	*	*rep	*	*rep	*	*rep	*	*	*	*	*	*	*	*	*	*	*	*
.	.	.	.	.	.	.	.	.	.	.	.	.	.	.	(8qee/	.	.	.	.	.	.	.
2.r	.	2.r	.	2.r	.	8GG/	.	8r	.	8r	.	2.r	.	2.r	8.dd\L)	.	2.ryy	.	2.r	.	2.r	.
.	.	.	.	.	.	8r	.	8G/L	.	8dL 8B/	.	.	.	.	.	.	.	.	.	.	.	.
.	.	.	.	.	.	.	.	.	.	.	.	.	.	.	16cc#X\K|	.	.	.	.	.	.	.
.	.	.	.	.	.	8r	.	8G/J	.	8dJ 8B/	.	.	.	.	8dd\J|	.	.	.	.	.	.	.
.	.	.	.	.	.	8G\	.	8r	.	8r	.	.	.	.	8b\L|	.	.	.	.	.	.	.
.	.	.	.	.	.	8r	.	8G/L	.	8dL 8B/	.	.	.	.	8r	.	.	.	.	.	.	.
.	.	.	.	.	.	8r	.	8G/J	.	8dJ 8B/	.	.	.	.	8b\J|	.	.	.	.	.	.	.
*	*	*	*	*	*	*Xrep	*	*Xrep	*	*Xrep	*	*	*	*	*	*	*	*	*	*	*	*
=5	=5	=5	=5	=5	=5	=5	=5	=5	=5	=5	=5	=5	=5	=5	=5	=5	=5	=5	=5	=5	=5	=5
.	.	.	.	.	.	.	.	.	.	.	.	.	.	.	(8qdd/	.	.	.	.	.	.	.
2.r	.	2.r	.	2.r	.	8D\	.	8r	.	8r	.	2.r	.	2.r	8.ccn\L)	.	2.ryy	.	2.r	.	2.r	.
!	!	!	!	!	!	!	!	!	!	!LO:SIC:v:n=2:s=8cn	!	!	!	!	!	!	!	!	!	!	!	!
.	.	.	.	.	.	8r	.	8AL 8F#/	.	8dL 8c#/	.	.	.	.	.	.	.	.	.	.	.	.
.	.	.	.	.	.	.	.	.	.	.	.	.	.	.	16b\K|	.	.	.	.	.	.	.
!	!	!	!	!	!	!	!	!	!	!LO:SIC:v:n=2:s=8cn	!	!	!	!	!	!	!	!	!	!	!	!
.	.	.	.	.	.	8r	.	8AJ 8F#/	.	8dJ 8c#/	.	.	.	.	8cc\J|	.	.	.	.	.	.	.
*	*	*	*	*	*	*	*	*rep	*	*rep	*	*	*	*	*	*	*	*	*	*	*	*
.	.	.	.	.	.	8D\	.	8r	.	8r	.	.	.	.	8a/L|	.	.	.	.	.	.	.
!	!	!	!	!	!	!	!	!	!	!LO:SIC:v:n=2:s=8cn	!	!	!	!	!	!	!	!	!	!	!	!
.	.	.	.	.	.	8r	.	8AL 8F#/	.	8dL 8c#/	.	.	.	.	8r	.	.	.	.	.	.	.
!	!	!	!	!	!	!	!	!	!	!LO:SIC:v:n=2:s=8cn	!	!	!	!	!	!	!	!	!	!	!	!
.	.	.	.	.	.	8r	.	8AJ 8F#/	.	8dJ 8c#/	.	.	.	.	8a/J|	.	.	.	.	.	.	.
*	*	*	*	*	*	*	*	*Xrep	*	*Xrep	*	*	*	*	*	*	*	*	*	*	*	*
!	!	!	!	!	!	!LO:LB:g=original	!	!LO:LB:g=original	!	!LO:LB:g=original	!	!LO:LB:g=original	!	!LO:LB:g=original	!LO:LB:g=original	!	!LO:LB:g=original	!	!LO:LB:g=original	!	!LO:LB:g=original	!
=6	=6	=6	=6	=6	=6	=6	=6	=6	=6	=6	=6	=6	=6	=6	=6	=6	=6	=6	=6	=6	=6	=6
*	*	*	*	*	*	*k[f#]	*	*k[f#]	*	*k[f#]	*	*k[f#]	*	*	*k[f#]	*	*	*	*	*	*	*
!	!	!	!	!	!	!	!	!	!	!	!	!	!	!	!LO:TX:a:t=Tromba	!	!	!	!	!	!	!
2.r	.	2.r	.	2.r	.	8GG/	.	8r	.	8r	.	4r	.	2.r	8g/L	.	2.r	.	2.r	.	4r	.
.	.	.	.	.	.	8r	.	8G/L	.	8dL 8B/	.	.	.	.	8b/	.	.	.	.	.	.	.
.	.	.	.	.	.	8r	.	8G/J	.	8dJ 8B/	.	8r	.	.	8f#/J	.	.	.	.	.	8r	.
*	*	*	*	*	*	*	*	*rep	*	*rep	*	*	*	*	*	*	*	*	*	*	*	*
.	.	.	.	.	.	8G\	.	8r	.	8r	.	8r	.	.	8g/	.	.	.	.	.	8r	.
*	*	*	*	*	*	*	*	*	*	*	*	*	*	*	*	*	*	*	*	*	*8ba	*
!	!	!	!	!	!	!	!	!	!	!	!	!	!	!	!	!	!	!	!	!	!LO:TX:a:t=flaut	!
.	.	.	.	.	.	8r	.	8G/L	.	8dL 8B/	.	8e'/L	.	.	8r	.	.	.	.	.	8e'\L	.
.	.	.	.	.	.	8r	.	8G/J	.	8dJ 8B/	.	[8d'/J	.	.	8r	.	.	.	.	.	[8d\J	.
*	*	*	*	*	*	*	*	*Xrep	*	*Xrep	*	*	*	*	*	*	*	*	*	*	*	*
=7	=7	=7	=7	=7	=7	=7	=7	=7	=7	=7	=7	=7	=7	=7	=7	=7	=7	=7	=7	=7	=7	=7
!	!	!	!	!	!	!	!LO:DY:rj	!	!	!	!LO:DY:rj	!	!	!	!	!	!	!	!	!LO:DY:rj	!	!
2.r	.	2.r	.	2.r	.	8GG/	mf	8r	.	8r	mf	8d/L]	.	2.r	2.r	.	[2.d [2.D/	.	[2.d [>2.B/	mf	8d\L]	.
.	.	.	.	.	.	8r	.	8dL 8G/	.	8gL 8B/	.	8b'/	.	.	.	.	.	.	.	.	8b'\	.
.	.	.	.	.	.	8r	.	8dJ 8G/	.	8gJ 8B/	.	8g'/J	.	.	.	.	.	.	.	.	8g'\J	.
*	*	*	*	*	*	*	*	*rep	*	*rep	*	*	*	*	*	*	*	*	*	*	*	*
.	.	.	.	.	.	8GG/	.	8r	.	8r	.	4dd\	.	.	.	.	.	.	.	.	4dd'\	.
.	.	.	.	.	.	8r	.	8dL 8G/	.	8gL 8B/	.	.	.	.	.	.	.	.	.	.	.	.
.	.	.	.	.	.	8r	.	8dJ 8G/	.	8gJ 8B/	.	8ee\	.	.	.	.	.	.	.	.	8ee'\	.
*	*	*	*	*	*	*	*	*Xrep	*	*Xrep	*	*	*	*	*	*	*	*	*	*	*	*
=8	=8	=8	=8	=8	=8	=8	=8	=8	=8	=8	=8	=8	=8	=8	=8	=8	=8	=8	=8	=8	=8	=8
*	*	*	*	*	*	*rep	*	*rep	*	*rep	*	*	*	*	*	*	*	*	*	*	*	*
.	.	.	.	.	.	.	.	.	.	.	.	(8qee/	.	.	.	.	.	.	.	.	8qee/	.
2.r	.	2.r	.	2.r	.	8GG/	.	8r	.	8r	.	8.dd\L)	.	2.r	2.r	.	2.d] 2.D/]	.	2.d] 2.B/]	.	8.dd\L	.
.	.	.	.	.	.	8r	.	8dL 8G/	.	8gL 8B/	.	.	.	.	.	.	.	.	.	.	.	.
.	.	.	.	.	.	.	.	.	.	.	.	16cc#X\K|	.	.	.	.	.	.	.	.	16cc#X\K	.
.	.	.	.	.	.	8r	.	8dJ 8G/	.	8gJ 8B/	.	8dd\J|	.	.	.	.	.	.	.	.	8dd\J	.
.	.	.	.	.	.	8GG/	.	8r	.	8r	.	8b'\L	.	.	.	.	.	.	.	.	8b\L	.
.	.	.	.	.	.	8r	.	8dL 8G/	.	8gL 8B/	.	8r	.	.	.	.	.	.	.	.	8r	.
.	.	.	.	.	.	8r	.	8dJ 8G/	.	8gJ 8B/	.	8b'\J	.	.	.	.	.	.	.	.	8b\J	.
*	*	*	*	*	*	*Xrep	*	*Xrep	*	*Xrep	*	*	*	*	*	*	*	*	*	*	*X8ba	*
=9	=9	=9	=9	=9	=9	=9	=9	=9	=9	=9	=9	=9	=9	=9	=9	=9	=9	=9	=9	=9	=9	=9
*	*	*	*	*	*	*	*	*	*	*	*	*	*	*	*	*	*	*	*^	*	*	*
*	*	*	*	*	*	*	*	*	*	*	*	*	*	*	*	*	*	*	*	*2\right	*	*	*
!	!	!	!	!	!	!	!LO:DY:rj	!	!LO:DY:rj	!	!LO:DY:rj	!	!LO:DY:rj	!	!	!	!	!	!	!	!	!LO:TX:a:t=Picolo	!LO:DY:rj
2.r	.	2.r	.	2.r	.	8AA/	f	8r	f	8r	f	8a'\L	f	2.r	2.r	.	2.f# 2.A/	f	8A'/L	2.d\	.	8a'\L	f
.	.	.	.	.	.	8r	.	8d\L	.	8f#L 8A/	.	8ff#'\	.	.	.	.	.	.	8f#'/	.	.	8ff#'\	.
.	.	.	.	.	.	8r	.	8d\J	.	8f#J 8A/	.	8dd'\J	.	.	.	.	.	.	8d'/J	.	.	8dd'\J	.
*	*	*	*	*	*	*	*	*rep	*	*rep	*	*	*	*	*	*	*	*	*	*	*	*	*
.	.	.	.	.	.	8AA/	.	8r	.	8r	.	4aa\	.	.	.	.	.	.	(4a/	.	.	(4aa\	.
.	.	.	.	.	.	8r	.	8d\L	.	8f#L 8A/	.	.	.	.	.	.	.	.	.	.	.	.	.
.	.	.	.	.	.	8r	.	8d\J	.	8f#J 8A/	.	8aa#X\	.	.	.	.	.	.	8a#X/)	.	.	8aa#X\)	.
*	*	*	*	*	*	*	*	*Xrep	*	*Xrep	*	*	*	*	*	*	*	*	*	*	*	*	*
=10	=10	=10	=10	=10	=10	=10	=10	=10	=10	=10	=10	=10	=10	=10	=10	=10	=10	=10	=10	=10	=10	=10	=10
!	!	!	!	!	!	!	!	!	!	!	!	!LO:SIC:v:s=16ccc#	!	!	!	!	!	!	!	!	!	!	!
*	*	*tremolo	*	*tremolo	*	*	*	*	*	*	*	*	*	*	*	*	*	*	*	*	*	*	*
4r	.	8ee\L	.	8AA/L	f	8AA/	.	8r	.	8r	.	(16ccc\LL	.	4.AA/	4r	.	4.g 4.A\	.	(16cc#X/LL	(4.c#X\	.	(16ccc#X\LL	.
.	.	.	.	.	.	.	.	.	.	.	.	16bb\	.	.	.	.	.	.	16b/	.	.	16bb\	.
.	.	8ee\	.	8AA/	.	8r	.	8eL 8c#X\	.	8gL 8A/	.	16aa#X\	.	.	.	.	.	.	16a#X/	.	.	16aa#X\	.
.	.	.	.	.	.	.	.	.	.	.	.	16bb\	.	.	.	.	.	.	16b/	.	.	16bb\	.
8r	.	8ee\J	.	8AA/J	.	8r	.	8eJ 8c#\	.	8gJ 8A/	.	16gg\	.	.	8r	.	.	.	16g/	.	.	16gg\	.
.	.	.	.	.	.	.	.	.	.	.	.	16ee\JJ)	.	.	.	.	.	.	16e/JJ	.	.	16ee\JJ	.
*	*	*Xtremolo	*	*Xtremolo	*	*	*	*	*	*	*	*	*	*	*	*	*	*	*	*	*	*	*
!	!LO:DY:a	!	!	!	!	!	!	!	!	!	!	!	!	!	!	!	!	!	!	!	!	!	!
8C/	f	8ee\	.	8D\	.	8D/	.	8d\	.	8f# 8A/	.	8dd\	.	8D/	4r	.	8f# 8D\	.	8d/)	8d\)	.	8dd\)	.
8r	.	8r	.	8r	.	8r	.	8r	.	8r	.	8r	.	8r	.	.	8r	.	8r	8ryy	.	8r	.
!	!	!	!	!	!	!LO:PB:g=original	!	!LO:PB:g=originall	!	!LO:PB:g=originall	!	!LO:PB:g=original	!	!LO:PB:g=originall	!	!	!LO:PB:g=original	!	!LO:PB:g=originall	!LO:PB:g=original	!	!LO:PB:g=original	!
*	*	*	*	*	*	*	*	*	*	*	*	*	*	*	*	*	*	*	*v	*v	*	*	*
=11!|:	=11!|:	=11!|:	=11!|:	=11!|:	=11!|:	=11!|:	=11!|:	=11!|:	=11!|:	=11!|:	=11!|:	=11!|:	=11!|:	=11!|:	=11!|:	=11!|:	=11!|:	=11!|:	=11!|:	=11!|:	=11!|:	=11!|:
*>B	*	*	*	*	*	*	*	*	*	*	*	*	*	*	*	*	*	*	*	*	*	*
8r	.	8r	.	8r	.	8r	.	8r	.	8r	.	8r	.	8r	[8d/	.	8r	.	8r	.	8r	.
=12	=12	=12	=12	=12	=12	=12	=12	=12	=12	=12	=12	=12	=12	=12	=12	=12	=12	=12	=12	=12	=12	=12
*	*	*	*	*	*	*	*	*	*	*	*	*	*	*	*	*	*	*	*^	*	*	*
!	!	!	!	!LO:TX:a:t=6.	!	!	!	!	!	!	!	!	!	!	!	!	!	!	!LO:TX:rj:b:t=2o.	!	!	!	!
2.r	.	2.r	.	2.r	.	8D\	.	8r	.	8r	.	4r	.	2.r	8d/L]	.	2.r	.	2.r	[>2.f# [2.d\	p	4r	.
.	.	.	.	.	.	8r	.	8AL 8D/	.	8dL 8cn/	p	.	.	.	8f#'/	.	.	.	.	.	.	.	.
.	.	.	.	.	.	8r	.	8AJ 8D/	.	8dJ 8c/	.	8r	.	.	8g'/J	.	.	.	.	.	.	8r	.
!	!	!	!	!	!	!	!	!	!	!	!	!	!	!	!	!	!	!	!	!	!	!LO:TX:a:t=Picolo	!
*	*	*	*	*	*	*	*	*rep	*	*rep	*	*	*	*	*	*	*	*	*	*	*	*	*
.	.	.	.	.	.	8D\	.	8r	.	8r	.	(4gg#X^\	p	.	(4g#X/	.	.	.	.	.	.	(4gg#X^<\	p
.	.	.	.	.	.	8r	.	8AL 8D/	.	8dL 8c/	.	.	.	.	.	.	.	.	.	.	.	.	.
.	.	.	.	.	.	8r	.	8AJ 8D/	.	8dJ 8c/	.	8aa\)	.	.	8a/)	.	.	.	.	.	.	8aa\)	.
*	*	*	*	*	*	*	*	*Xrep	*	*Xrep	*	*	*	*	*	*	*	*	*	*	*	*	*
=13	=13	=13	=13	=13	=13	=13	=13	=13	=13	=13	=13	=13	=13	=13	=13	=13	=13	=13	=13	=13	=13	=13	=13
*	*	*	*	*	*	*rep	*	*	*	*	*	*	*	*	*	*	*	*	*	*	*	*	*
2.r	.	2.r	.	2.r	.	8D\	.	8r	.	8r	.	4r	.	2.r	8bsS\L	.	2.r	.	2.r	2.f#] 2.d\_	.	4r	.
.	.	.	.	.	.	8r	.	8G/L	.	8dL 8B/	.	.	.	.	8ee'\	.	.	.	.	.	.	.	.
.	.	.	.	.	.	8r	.	8G/J	.	8dJ 8B/	.	8r	.	.	8dd'\J	.	.	.	.	.	.	8r	.
*	*	*	*	*	*	*	*	*rep	*	*rep	*	*	*	*	*	*	*	*	*	*	*	*	*
.	.	.	.	.	.	8D\	.	8r	.	8r	.	(4ff#^\	.	.	(4f#/	.	.	.	.	.	.	(4ff#^<\	.
.	.	.	.	.	.	8r	.	8G/L	.	8dL 8B/	.	.	.	.	.	.	.	.	.	.	.	.	.
.	.	.	.	.	.	8r	.	8G/J	.	8dJ 8B/	.	8gg\)	.	.	8g/)	.	.	.	.	.	.	8gg\)	.
*	*	*	*	*	*	*Xrep	*	*Xrep	*	*Xrep	*	*	*	*	*	*	*	*	*	*	*	*	*
=14	=14	=14	=14	=14	=14	=14	=14	=14	=14	=14	=14	=14	=14	=14	=14	=14	=14	=14	=14	=14	=14	=14	=14
*	*	*	*	*	*	*rep	*	*	*	*	*	*	*	*	*	*	*	*	*	*	*	*	*
2.r	.	2.r	.	2.r	.	8D\	.	8r	.	8r	.	4r	.	2.r	(8b/L	.	2.r	.	2.r	2.f# 2.d\_	.	4r	.
.	.	.	.	.	.	8r	.	8AL 8F#/	.	8dL 8c/	.	.	.	.	8cc/)	.	.	.	.	.	.	.	.
.	.	.	.	.	.	8r	.	8AJ 8F#/	.	8dJ 8c/	.	8r	.	.	8g#X'/J	.	.	.	.	.	.	8r	.
*	*	*	*	*	*	*	*	*rep	*	*rep	*	*	*	*	*	*	*	*	*	*	*	*8ba	*
!	!	!	!	!	!	!	!	!	!	!	!	!	!	!	!	!	!	!	!	!	!	!LO:TX:a:t=Flauto	!
.	.	.	.	.	.	8D\	.	8r	.	8r	.	(4a/	.	.	(4a/	.	.	.	.	.	.	(4a\	.
.	.	.	.	.	.	8r	.	8AL 8F#/	.	8dL 8c/	.	.	.	.	.	.	.	.	.	.	.	.	.
.	.	.	.	.	.	8r	.	8AJ 8F#/	.	8dJ 8c/	.	8cc/)	.	.	8cc/)	.	.	.	.	.	.	8cc\)	.
*	*	*	*	*	*	*Xrep	*	*Xrep	*	*Xrep	*	*	*	*	*	*	*	*	*	*	*	*	*
=15	=15	=15	=15	=15	=15	=15	=15	=15	=15	=15	=15	=15	=15	=15	=15	=15	=15	=15	=15	=15	=15	=15	=15
*	*	*	*	*	*	*rep	*	*	*	*	*	*	*	*	*	*	*	*	*	*	*	*	*
2.r	.	2.r	.	2.r	.	8D\	.	8r	.	8r	.	4r	.	2.r	(8ee\L	.	2.r	.	2.r	2.f# 2.d\]	.	4r	.
.	.	.	.	.	.	8r	.	8G/L	.	8dL 8B/	.	.	.	.	8dd\)	.	.	.	.	.	.	.	.
.	.	.	.	.	.	8r	.	8G/J	.	8dJ 8B/	.	8r	.	.	8cc#X'\J	.	.	.	.	.	.	8r	.
*	*	*	*	*	*	*	*	*rep	*	*rep	*	*	*	*	*	*	*	*	*	*	*	*	*
.	.	.	.	.	.	8D\	.	8r	.	8r	.	(4dd\	.	.	(4dd\	.	.	.	.	.	.	(4dd\	.
.	.	.	.	.	.	8r	.	8G/L	.	8dL 8B/	.	.	.	.	.	.	.	.	.	.	.	.	.
.	.	.	.	.	.	8r	.	8G/J	.	8dJ 8B/	.	8b\)	.	.	8b\)	.	.	.	.	.	.	8b\)	.
*	*	*	*	*	*	*Xrep	*	*Xrep	*	*Xrep	*	*	*	*	*	*	*	*	*	*	*	*	*
=16	=16	=16	=16	=16	=16	=16	=16	=16	=16	=16	=16	=16	=16	=16	=16	=16	=16	=16	=16	=16	=16	=16	=16
!	!	!	!	!	!	!	!LO:DY:rj	!	!	!	!LO:DY:rj	!	!LO:DY:rj	!	!	!	!	!	!LO:TX:a:t=1o.	!	!	!	!
2.r	.	2.r	.	2.r	.	8D\	mf	8r	.	8r	mf	8d'/L	mf	2.r	4r	.	2.d 2.A/	.	8d'/L	2.cn\	.	8d'\L	.
.	.	.	.	.	.	8r	.	8A/L	.	8dL 8c/	.	8f#'/	.	.	.	.	.	.	8f#'/	.	.	8f#'\	.
.	.	.	.	.	.	8r	.	8A/J	.	8dJ 8c/	.	8g'/J	.	.	8r	.	.	.	8g'/J	.	.	8g'\J	.
*	*	*	*	*	*	*	*	*rep	*	*rep	*	*	*	*	*	*	*	*	*	*	*	*	*
!	!	!	!	!	!	!	!	!	!	!	!	!	!	!	!LO:TX:rj:b:t=due	!	!	!	!	!	!	!	!
.	.	.	.	.	.	8D\	.	8r	.	8r	.	(4g#X^/	.	.	(4g#X/	.	.	.	(<4g#X/	.	.	(4g#X^<\	.
.	.	.	.	.	.	8r	.	8A/L	.	8dL 8c/	.	.	.	.	.	.	.	.	.	.	.	.	.
.	.	.	.	.	.	8r	.	8A/J	.	8dJ 8c/	.	8a/)	.	.	8a/)	.	.	.	8a/)	.	.	8a\)	.
*	*	*	*	*	*	*	*	*Xrep	*	*Xrep	*	*	*	*	*	*	*	*	*	*	*	*	*
=17	=17	=17	=17	=17	=17	=17	=17	=17	=17	=17	=17	=17	=17	=17	=17	=17	=17	=17	=17	=17	=17	=17	=17
.	.	.	.	.	.	.	.	.	.	.	.	(16qqcc/LL	.	.	.	.	.	.	(>16qqcc/LL	.	.	(16qqcc/LL	.
.	.	.	.	.	.	.	.	.	.	.	.	16qqb/	.	.	.	.	.	.	16qqb/	.	.	16qqb/	.
.	.	.	.	.	.	.	.	.	.	.	.	16qqa#X/JJ	.	.	.	.	.	.	16qqa#X/JJ	.	.	16qqa#X/JJ	.
2.r	.	2.r	.	2.r	.	8GG/	.	8r	.	8r	.	8b\L)	.	2.r	4r	.	2.d 2.G/	.	8b/L)	2.B/	.	8b\L)	.
.	.	.	.	.	.	8r	.	8G/L	.	8dL 8B/	.	8ee'\	.	.	.	.	.	.	8ee'/	.	.	8ee'\	.
.	.	.	.	.	.	8r	.	8G/J	.	8dJ 8B/	.	8dd'\J	.	.	8r	.	.	.	8dd'/J	.	.	8dd'\J	.
.	.	.	.	.	.	8GG/	.	8r	.	8r	.	(4gg\	.	.	(4g^>/	.	.	.	(4gg/	.	.	(4gg\	.
.	.	.	.	.	.	8r	.	8dL 8G/	.	8gL 8B/	.	.	.	.	.	.	.	.	.	.	.	.	.
.	.	.	.	.	.	8r	.	8dJ 8G/	.	8gJ 8B/	.	8b\)	.	.	8b/)	.	.	.	8b/)	.	.	8b\)	.
*	*	*	*	*	*	*	*	*	*	*	*	*	*	*	*	*	*	*	*v	*v	*	*	*
*	*	*	*	*	*	*	*	*	*	*	*	*	*	*	*	*	*	*	*	*	*X8ba	*
!LO:LB:g=original	!	!LO:LB:g=original	!	!LO:LB:g=original	!	!	!	!	!	!	!	!	!	!	!	!	!	!	!	!	!	!
=18	=18	=18	=18	=18	=18	=18	=18	=18	=18	=18	=18	=18	=18	=18	=18	=18	=18	=18	=18	=18	=18	=18
*	*	*	*	*	*	*	*	*	*	*	*	*	*	*	*^	*	*^	*	*^	*	*^	*
*	*	*	*	*	*	*	*	*	*	*	*	*	*	*	*	*	*	*	*2\right	*	*	*	*	*	*	*
!	!	!	!	!	!	!	!	!	!	!	!	!	!	!	!	!	!	!	!	!	!	!	!	!LO:TX:b:t=due	!	!
!	!	!	!	!	!	!	!	!	!	!	!	!	!	!	!LO:TX:b:t=2o.	!	!	!	!	!	!	!	!	!LO:TX:a:t=col V(iolin)o. Io 8va	!	!
!	!	!	!	!	!LO:DY:rj	!	!LO:DY:rj	!	!	!	!LO:DY:rj	!	!LO:DY:rj	!	!	!	!	!	!	!	!	!	!LO:DY:rj	!	!	!LO:DY:rj
8C/	.	8r	.	8AA/	f	8AA/	f	8r	.	8r	f	8a'\L	f	8AA/	2.r	8r	f	4.f#/	2.A\	f	8a/L	4.d\	f	8aa'/Lyy	8a'\Lyy	fyy
!	!	!	!	!	!	!	!	!	!LO:DY:rj	!	!	!	!	!	!	!	!	!	!	!	!	!	!	!	!	!
8r	.	16ee\LL	.	8r	.	8r	.	8dL 8A\	f	8f#L 8A/	.	16ff#'\L	.	8r	.	16a\LL	.	.	.	.	16ff#'/L	.	.	16fff#'/Lyy	16ff#'\yy	.
.	.	16ee\J	.	.	.	.	.	.	.	.	.	16ee'\J	.	.	.	16a\J	.	.	.	.	16ee'/J	.	.	16eee'/Jyy	16ee'\Jyy	.
8r	.	8ee\J	.	8r	.	8r	.	8dJ 8A\	.	8f#J 8A/	.	8dd'\J	.	8r	.	8a\J	.	.	.	.	8dd'/J	.	.	8ddd'/Jyy	8dd'\Jyy	.
8C/	.	8r	.	8AA/	.	8A\	.	8r	.	8r	.	8a'\L	.	8A\	.	8r	.	4.g/	.	.	8a/L	4.e\	.	8aa'/Lyy	8a'\Lyy	.
8r	.	16ee\LL	.	8r	.	8r	.	8eL 8A\	.	8gL 8A/	.	16ee'\L	.	8r	.	16a\LL	.	.	.	.	16ee'/L	.	.	16eee'/Lyy	16ee'\Lyy	.
.	.	16ee\J	.	.	.	.	.	.	.	.	.	16dd'\J	.	.	.	16a\J	.	.	.	.	16dd'/J	.	.	16ddd'/Jyy	16dd'\Jyy	.
8r	.	8ee\J	.	8r	.	8r	.	8eJ 8A\	.	8gJ 8A/	.	8cc#X'\J	.	8r	.	8a\J	.	.	.	.	8cc#X'/J	.	.	8ccc#X'/Jyy	8cc#X'\Jyy	.
*	*	*	*	*	*	*	*	*	*	*	*	*	*	*	*	*	*	*v	*v	*	*	*	*	*	*	*
=19	=19	=19	=19	=19	=19	=19	=19	=19	=19	=19	=19	=19	=19	=19	=19	=19	=19	=19	=19	=19	=19	=19	=19	=19	=19
*	*	*tremolo	*	*tremolo	*	*	*	*	*	*	*	*	*	*	*	*	*	*	*	*	*	*	*	*	*
4r	.	8ee\L	.	8D\L	.	8D\L	.	8r	.	8r	.	(16ee\LL	.	8D\L	4r	8d'/L	.	8r	.	(16ee/LL	8r	.	(16eee/LLyy	(16ee\LLyy	.
.	.	.	.	.	.	.	.	.	.	.	.	16dd\	.	.	.	.	.	.	.	16dd/	.	.	16ddd/yy	16dd\yy	.
.	.	8ee\	.	8D\	.	8F#\	.	8d\L	.	8f#L 8A/	.	16cc#X\	.	8F#\	.	8f#'/	.	8f#L 8A/	.	16cc#X/	8d\L	.	16ccc#X/yy	16cc#X\yy	.
.	.	.	.	.	.	.	.	.	.	.	.	16dd\)	.	.	.	.	.	.	.	16dd/)	.	.	16ddd/)yy	16dd\)yy	.
8r	.	8ee\J	.	8D\J	.	8A\J	.	8d\J	.	8f#J 8A/	.	16a'\	.	8A\J	8r	8a'/J	.	8f#J 8A/	.	16a'/	8d\J	.	16aa'/yy	16a'\yy	.
.	.	.	.	.	.	.	.	.	.	.	.	16f#'\JJ	.	.	.	.	.	.	.	16f#'/JJ	.	.	16ff#'/JJyy	16f#'\JJyy	.
*	*	*Xtremolo	*	*Xtremolo	*	*	*	*	*	*	*	*	*	*	*	*	*	*	*	*	*	*	*	*	*
8C/	.	8ee\	.	8D\	.	8D\	.	8d\	.	8f# 8A/	.	8d'/	.	8D\	8r	8d'/	.	8f# 8A/	.	8d/	8d\	.	8dd/	8dd\	.
8r	.	8r	.	8r	.	8r	.	8r	.	8r	.	8r	.	8r	8e'/L	8r	.	8r	.	8r	8ryy	.	8r	8ryy	.
8r	.	8r	.	8r	.	8r	.	8r	.	8r	.	8r	.	8r	((8e-X/J	8r	.	8r	.	8r	8ryy	.	8r	8ryy	.
*	*	*	*	*	*	*	*	*	*	*	*	*	*	*	*	*	*	*	*	*v	*v	*	*	*	*
*	*	*	*	*	*	*	*	*	*	*	*	*	*	*	*v	*v	*	*	*	*	*	*v	*v	*
=20	=20	=20	=20	=20	=20	=20	=20	=20	=20	=20	=20	=20	=20	=20	=20	=20	=20	=20	=20	=20	=20	=20
!LO:TX:a:t=7.	!	!LO:TX:a:t=7.	!	!LO:TX:a:t=7.	!	!	!LO:DY:rj	!	!LO:DY:rj	!	!	!	!	!	!	!	!	!	!	!	!	!
2.r	.	2.r	.	2.r	.	8GG/	p	8r	p	8r	p	2.r	.	2.r	8d/L))	.	2.r	.	2.r	.	2.r	.
.	.	.	.	.	.	8r	.	8G/L	.	8dL 8B/	.	.	.	.	8b'/	.	.	.	.	.	.	.
.	.	.	.	.	.	8r	.	8G/J	.	8dJ 8B/	.	.	.	.	8g'/J	.	.	.	.	.	.	.
*	*	*	*	*	*	*	*	*rep	*	*rep	*	*	*	*	*	*	*	*	*	*	*	*
.	.	.	.	.	.	8G\	.	8r	.	8r	.	.	.	.	(4dd\	.	.	.	.	.	.	.
.	.	.	.	.	.	8r	.	8G/L	.	8dL 8B/	.	.	.	.	.	.	.	.	.	.	.	.
.	.	.	.	.	.	8r	.	8G/J	.	8dJ 8B/	.	.	.	.	8ee\)	.	.	.	.	.	.	.
*	*	*	*	*	*	*	*	*Xrep	*	*Xrep	*	*	*	*	*	*	*	*	*	*	*	*
=21	=21	=21	=21	=21	=21	=21	=21	=21	=21	=21	=21	=21	=21	=21	=21	=21	=21	=21	=21	=21	=21	=21
*	*	*	*	*	*	*rep	*	*rep	*	*rep	*	*	*	*	*	*	*	*	*	*	*	*
.	.	.	.	.	.	.	.	.	.	.	.	.	.	.	(8qee/	.	.	.	.	.	.	.
2.r	.	2.r	.	2.r	.	8GG/	.	8r	.	8r	.	2.r	.	2.r	8.dd\L)	.	2.r	.	2.r	.	2.r	.
.	.	.	.	.	.	8r	.	8G/L	.	8dL 8B/	.	.	.	.	.	.	.	.	.	.	.	.
.	.	.	.	.	.	.	.	.	.	.	.	.	.	.	16cc#X'\K	.	.	.	.	.	.	.
.	.	.	.	.	.	8r	.	8G/J	.	8dJ 8B/	.	.	.	.	8dd'\J	.	.	.	.	.	.	.
.	.	.	.	.	.	8G\	.	8r	.	8r	.	.	.	.	8b'\L	.	.	.	.	.	.	.
.	.	.	.	.	.	8r	.	8G/L	.	8dL 8B/	.	.	.	.	8r	.	.	.	.	.	.	.
.	.	.	.	.	.	8r	.	8G/J	.	8dJ 8B/	.	.	.	.	8b'\J	.	.	.	.	.	.	.
*	*	*	*	*	*	*Xrep	*	*Xrep	*	*Xrep	*	*	*	*	*	*	*	*	*	*	*	*
!	!	!	!	!	!	!LO:PB:g=original	!	!LO:PB:g=original	!	!LO:PB:g=original	!	!LO:PB:g=original	!	!LO:PB:g=original	!LO:PB:g=original	!	!LO:PB:g=original	!	!LO:PB:g=original	!	!LO:PB:g=original	!
=22	=22	=22	=22	=22	=22	=22	=22	=22	=22	=22	=22	=22	=22	=22	=22	=22	=22	=22	=22	=22	=22	=22
.	.	.	.	.	.	.	.	.	.	.	.	.	.	.	(8qdd/	.	.	.	.	.	.	.
2.r	.	2.r	.	2.r	.	8D\yy	.	8ryy	.	8r	.	2.r	.	2.ryy	8.ccn\L)	.	2.ryy	.	2.ryy	.	2.ryy	.
!	!	!	!	!	!	!	!	!	!	!LO:SIC:v:n=2:s=8cn	!	!	!	!	!	!	!	!	!	!	!	!
.	.	.	.	.	.	8ryy	.	8AyyL 8F#/yy	.	8dL 8c#X/	.	.	.	.	.	.	.	.	.	.	.	.
.	.	.	.	.	.	.	.	.	.	.	.	.	.	.	16b\K|	.	.	.	.	.	.	.
!	!	!	!	!	!	!	!	!	!	!LO:SIC:v:n=2:s=8cn	!	!	!	!	!	!	!	!	!	!	!	!
.	.	.	.	.	.	8ryy	.	8AyyJ 8F#/yy	.	8dJ 8c#/	.	.	.	.	8cc\J|	.	.	.	.	.	.	.
*	*	*	*	*	*	*	*	*	*	*rep	*	*	*	*	*	*	*	*	*	*	*	*
.	.	.	.	.	.	8D\yy	.	8ryy	.	8r	.	.	.	.	8a/L	.	.	.	.	.	.	.
!	!	!	!	!	!	!	!	!	!	!LO:SIC:v:n=2:s=8cn	!	!	!	!	!	!	!	!	!	!	!	!
.	.	.	.	.	.	8ryy	.	8AyyL 8F#/yy	.	8dL 8c#/	.	.	.	.	8r	.	.	.	.	.	.	.
!	!	!	!	!	!	!	!	!	!	!LO:SIC:v:n=2:s=8cn	!	!	!	!	!	!	!	!	!	!	!	!
.	.	.	.	.	.	8ryy	.	8AyyJ 8F#/yy	.	8dJ 8c#/	.	.	.	.	8a/J	.	.	.	.	.	.	.
*	*	*	*	*	*	*	*	*	*	*Xrep	*	*	*	*	*	*	*	*	*	*	*	*
=23	=23	=23	=23	=23	=23	=23	=23	=23	=23	=23	=23	=23	=23	=23	=23	=23	=23	=23	=23	=23	=23	=23
2.r	.	2.r	.	2.r	.	8GG/yy	.	8ryy	.	8r	.	4ryy	.	2.ryy	8g/L	.	2.ryy	.	2.ryy	.	4ryy	.
.	.	.	.	.	.	8ryy	.	8G/Lyy	.	8dL 8B/	.	.	.	.	8b/	.	.	.	.	.	.	.
.	.	.	.	.	.	8ryy	.	8G/Jyy	.	8dJ 8B/	.	8ryy	.	.	8f#/J	.	.	.	.	.	8ryy	.
*	*	*	*	*	*	*	*	*	*	*rep	*	*	*	*	*	*	*	*	*	*	*	*
.	.	.	.	.	.	8G\yy	.	8ryy	.	8r	.	8ryy	.	.	8g/	.	.	.	.	.	8ryy	.
!	!	!	!	!	!	!	!	!	!	!	!	!	!	!	!	!	!	!	!	!	!	!LO:DY:rj
.	.	.	.	.	.	8ryy	.	8G/Lyy	.	8dL 8B/	.	8e'/L	f	.	8r	.	.	.	.	.	8ee'\L	f
.	.	.	.	.	.	8ryy	.	8G/Jyy	.	8dJ 8B/	.	[8d'/J	.	.	8r	.	.	.	.	.	[8dd\J	.
*	*	*	*	*	*	*	*	*	*	*Xrep	*	*	*	*	*	*	*	*	*	*	*	*
=24	=24	=24	=24	=24	=24	=24	=24	=24	=24	=24	=24	=24	=24	=24	=24	=24	=24	=24	=24	=24	=24	=24
*	*	*	*	*	*	*	*	*	*	*	*	*	*	*	*	*	*^	*	*	*	*	*
!	!	!	!	!	!	!	!LO:DY:rj	!	!	!	!	!	!	!	!	!	!	!	!	!	!LO:DY:rj	!	!
2.r	.	2.r	.	2.r	.	8G\	mf	8r	.	8r	f	8d/L]	.	8G\	2.r	.	(4.d/	4.d\	.	(>2.d 2.B/	f	8dd\L]	.
.	.	.	.	.	.	8r	.	8G/L	.	8dL 8B/	.	8b/	.	8r	.	.	.	.	.	.	.	8bb'\	.
.	.	.	.	.	.	8r	.	8G/J	.	8dJ 8B/	.	8g/J	.	8r	.	.	.	.	.	.	.	8gg'\J	.
*	*	*	*	*	*	*	*	*rep	*	*	*	*	*	*	*	*	*	*	*	*	*	*	*
.	.	.	.	.	.	8GG/	.	8r	.	8r	.	4dd\	.	8G\	.	.	4d/	4d\	.	.	.	4ddd'\	.
.	.	.	.	.	.	8r	.	8G/L	.	8dL 8B/	.	.	.	8r	.	.	.	.	.	.	.	.	.
.	.	.	.	.	.	8r	.	8G/J	.	8d#XJ 8B/	.	8dd#X\	.	8r	.	.	8d#X/)	8d#\	.	.	.	8ddd#X'\	.
*	*	*	*	*	*	*	*	*Xrep	*	*	*	*	*	*	*	*	*	*	*	*	*	*	*
=25	=25	=25	=25	=25	=25	=25	=25	=25	=25	=25	=25	=25	=25	=25	=25	=25	=25	=25	=25	=25	=25	=25	=25
*	*	*	*	*	*	*	*	*	*	*	*	*	*	*	*	*	*	*	*	*^	*	*	*
2.r	.	2.r	.	2.r	.	8C/	.	8r	.	8r	.	4ee\	.	8C/	2.r	.	2.e/	2.e\	.	2.c/	4.G\	.	4eee\	.
.	.	.	.	.	.	8r	.	8G/L	.	8eL 8c/	.	.	.	8r	.	.	.	.	.	.	.	.	.	.
.	.	.	.	.	.	8r	.	8G/J	.	8eJ 8c/	.	8b\	.	8r	.	.	.	.	.	.	.	.	8bb\	.
*	*	*	*	*	*	*	*	*	*	*rep	*	*	*	*	*	*	*	*	*	*	*	*	*	*
.	.	.	.	.	.	8C/	.	8r	.	8r	.	(8ddn\L	.	8C/	.	.	.	.	.	.	4.A\	.	(8dddn\L	.
.	.	.	.	.	.	8r	.	8A/L	.	8eL 8c/	.	8cc\)	.	8r	.	.	.	.	.	.	.	.	8ccc\)	.
.	.	.	.	.	.	8r	.	8A/J	.	8eJ 8c/	.	8a'\J	.	8r	.	.	.	.	.	.	.	.	8aa'\J	.
*	*	*	*	*	*	*	*	*	*	*Xrep	*	*	*	*	*	*	*	*	*	*	*	*	*	*
*	*	*	*	*	*	*	*	*	*	*	*	*	*	*	*	*	*	*	*	*v	*v	*	*	*
=26	=26	=26	=26	=26	=26	=26	=26	=26	=26	=26	=26	=26	=26	=26	=26	=26	=26	=26	=26	=26	=26	=26	=26
2.r	.	2.r	.	2.r	.	8D\	.	8r	.	8r	.	8g'\L	.	8D\	8g'\L	.	2.d/	2.d\	.	4.B 4.G/	.	8gg'\L	.
.	.	.	.	.	.	8r	.	8G/L	.	8dL 8B/	.	16b'\L	.	8r	16b'\L	.	.	.	.	.	.	16bb'\L	.
.	.	.	.	.	.	.	.	.	.	.	.	16ee'\J	.	.	16ee'\J	.	.	.	.	.	.	16eee'\J	.
.	.	.	.	.	.	8r	.	8G/J	.	8dJ 8B/	.	8dd'\J	.	8r	8dd'\J	.	.	.	.	.	.	8ddd'\J	.
.	.	.	.	.	.	8D\	.	8r	.	8r	.	(8dd\L	.	8D\	(8dd\L	.	.	.	.	4.c 4.F#/)	.	(8ddd\L	.
.	.	.	.	.	.	8r	.	8AL 8F#/	.	8dL 8c/	.	8cc\)	.	8r	8cc\)	.	.	.	.	.	.	8ccc\)	.
.	.	.	.	.	.	8r	.	8AJ 8F#/	.	8dJ 8c/	.	8a'\J	.	8r	8a'\J	.	.	.	.	.	.	8aa'\J	.
*	*	*	*	*	*	*	*	*	*	*	*	*	*	*	*	*	*v	*v	*	*	*	*	*
!	!	!	!	!	!	!LO:LB:g=original	!	!LO:LB:g=original	!LO:LB:g=original	!LO:LB:g=original	!LO:LB:g=original	!LO:LB:g=original	!	!LO:LB:g=original	!	!LO:LB:g=original	!	!LO:LB:g=original	!	!	!	!
=27	=27	=27	=27	=27	=27	=27	=27	=27	=27	=27	=27	=27	=27	=27	=27	=27	=27	=27	=27	=27	=27	=27
*	*	*	*	*	*	*	*	*	*	*	*	*	*	*	*	*	*tremolo	*	*tremolo	*	*	*
4r	.	4r	.	4r	.	8G'\L	.	8r	.	8r	.	(16a/LL	.	8G\L	(16a/LL	.	8dL 8G\	.	8BL 8G/	.	(16aa\LL	.
.	.	.	.	.	.	.	.	.	.	.	.	16g/	.	.	16g/	.	.	.	.	.	16gg\	.
.	.	.	.	.	.	8D'\	.	8G/L	.	8dL 8B/	.	16f#/	.	8D\	16f#/	.	8d 8G\	.	8B 8G/	.	16ff#\	.
.	.	.	.	.	.	.	.	.	.	.	.	16g/)	.	.	16g/)	.	.	.	.	.	16gg\)	.
8r	.	8r	.	8r	.	8BB'\J	.	8G/J	.	8dJ 8B/	.	16b'/	.	8B\J	16b'/	.	8dJ 8G\	.	8BJ 8G/	.	16bb'\	.
.	.	.	.	.	.	.	.	.	.	.	.	16dd'/JJ	.	.	16dd'/JJ	.	.	.	.	.	16ddd'\JJ	.
*	*	*	*	*	*	*	*	*	*	*	*	*	*	*	*	*	*Xtremolo	*	*Xtremolo	*	*	*
!	!	!	!	!	!	!	!LO:DY:rj	!	!	!	!	!	!	!	!	!	!	!	!	!	!	!
8C/	.	8ee\	.	8D\	f	8GG'/	sf	8d 8G/	.	8g 8B/	sf	8gg 8b 8d'\	sf	8G\	8g/	.	8d 8G\	.	16B 16G/	.	8ggg\	.
.	.	.	.	.	.	.	.	.	.	.	.	.	.	.	.	.	.	.	16r	.	.	.
!	!	!	!	!	!	!	!	!	!	!	!	!LO:TX:a:t=divisi	!	!	!	!	!	!	!	!	!	!
8r	.	8r	.	8r	.	8r	.	8r	.	8r	.	8eeL 8cc\	p	8r	8r	.	8r	.	8eeL 8cc'\	.	8r	.
8r	.	8r	.	8r	.	8r	.	8r	.	8r	.	8ffnJ 8dd\	.	8r	8r	.	8r	.	8ffnJ 8dd'\	.	8r	.
=28	=28	=28	=28	=28	=28	=28	=28	=28	=28	=28	=28	=28	=28	=28	=28	=28	=28	=28	=28	=28	=28	=28
*	*	*	*	*	*	*	*	*	*	*	*	*	*	*	*	*	*	*	*	*	*^	*
!LO:TX:a:t=7.	!	!	!	!LO:TX:a:t=7.	!	!	!LO:DY:rj	!	!	!	!	!	!	!	!	!	!	!	!	!	!	!	!
2.r	.	2.r	.	2.r	.	8C/	p	8r	.	8r	p	8gg 8ee\	.	2.r	8r	p	2.r	.	8gg 8ee\	.	8r	8ryy	.
!	!	!	!	!	!	!	!	!	!	!	!	!	!	!	!	!	!	!	!	!	!LO:TX:rj:b:t=Picol	!	!
!	!	!	!	!	!	!	!	!	!	!	!	!	!	!	!	!	!	!	!	!	!LO:TX:rj:a:t=Flaut	!	!
*	*	*	*	*	*	*	*	*	*	*	*	*	*	*	*tremolo	*	*	*	*	*	*tremolo	*tremolo	*
.	.	.	.	.	.	8r	.	8c\L	.	8eL 8G/	.	8r	.	.	(16gLL 16c'/	.	.	.	(16eeLL 16cc'\	.	16ee/LL	16cc\LL	.
.	.	.	.	.	.	.	.	.	.	.	.	.	.	.	16g 16c'/	.	.	.	16ee 16cc'\	.	16ee/	16cc\	.
.	.	.	.	.	.	8r	.	8c\J	.	8eJ 8G/	.	8r	.	.	16g 16c'/	.	.	.	16ee 16cc'\	.	16ee/	16cc\	.
.	.	.	.	.	.	.	.	.	.	.	.	.	.	.	16gJJ 16c'/	.	.	.	16eeJJ 16cc'\)	.	16ee/JJ	16cc\JJ	.
*	*	*	*	*	*	*	*	*rep	*	*rep	*	*	*	*	*Xtremolo	*	*	*	*	*	*Xtremolo	*Xtremolo	*
.	.	.	.	.	.	8C/	.	8r	.	8r	.	8r	.	.	8g 8c/)	.	.	.	8ee 8cc\	.	8ee/	8cc\	.
.	.	.	.	.	.	8r	.	8c\L	.	8eL 8G/	.	8eeL 8cc'\	.	.	8r	.	.	.	8eeL 8cc'\	.	8r	8ryy	.
.	.	.	.	.	.	8r	.	8c\J	.	8eJ 8G/	.	8ffnJ 8dd'\	.	.	8r	.	.	.	8ffnJ 8dd'\	.	8r	8ryy	.
*	*	*	*	*	*	*	*	*Xrep	*	*Xrep	*	*	*	*	*	*	*	*	*	*	*	*	*
*	*	*	*	*	*	*	*	*	*	*	*	*	*	*	*	*	*	*	*	*	*v	*v	*
=29	=29	=29	=29	=29	=29	=29	=29	=29	=29	=29	=29	=29	=29	=29	=29	=29	=29	=29	=29	=29	=29	=29
*	*	*	*	*	*	*rep	*	*rep	*	*rep	*	*	*	*	*	*	*	*	*	*	*	*
2.r	.	2.r	.	2.r	.	8C/	.	8r	.	8r	.	(>4.aa (>4.ffn\	>	2.r	2.r	.	2.r	.	(4.aa (4.ffn\	>	2.r	.
.	.	.	.	.	.	8r	.	8c\L	.	8eL 8G/	.	.	.	.	.	.	.	.	.	.	.	.
.	.	.	.	.	.	8r	.	8c\J	.	8eJ 8G/	.	.	.	.	.	.	.	.	.	.	.	.
.	.	.	.	.	.	8C/	.	8r	.	8r	.	8gg 8ee\))	]	.	.	.	.	.	8gg 8ee\))	]	.	.
.	.	.	.	.	.	8r	.	8c\L	.	8eL 8G/	.	8eeL 8cc'\	.	.	.	.	.	.	8eeL 8cc'\	.	.	.
.	.	.	.	.	.	8r	.	8c\J	.	8eJ 8G/	.	8ggJ 8ee'\	.	.	.	.	.	.	8ggJ 8ee'\	.	.	.
*	*	*	*	*	*	*Xrep	*	*Xrep	*	*Xrep	*	*	*	*	*	*	*	*	*	*	*	*
=30	=30	=30	=30	=30	=30	=30	=30	=30	=30	=30	=30	=30	=30	=30	=30	=30	=30	=30	=30	=30	=30	=30
*	*	*	*	*	*	*	*	*	*	*	*	*	*	*	*	*	*	*	*	*	*^	*
2.r	.	2.r	.	2.r	.	8GG/	.	8r	.	8r	.	8ffn 8dd\	.	2.r	8r	.	2.r	.	8ffn 8dd\	.	8r	8r	.
!	!	!	!	!	!	!	!	!	!	!LO:SIC:v:n=1:s=8fn	!	!	!	!	!	!	!	!	!	!	!	!	!
*	*	*	*	*	*	*	*	*	*	*	*	*	*	*	*	*	*	*	*tremolo	*	*tremolo	*tremolo	*
.	.	.	.	.	.	8r	.	8dL 8B\	.	8f#L 8G/	.	8r	.	.	(16g'/LL	.	.	.	(16gg'\LL	.	16gg/LL	16gg\LL	.
.	.	.	.	.	.	.	.	.	.	.	.	.	.	.	16g'/	.	.	.	16gg'\	.	16gg/	16gg\	.
!	!	!	!	!	!	!	!	!	!	!LO:SIC:v:n=1:s=8fn	!	!	!	!	!	!	!	!	!	!	!	!	!
.	.	.	.	.	.	8r	.	8dJ 8B\	.	8f#J 8G/	.	8r	.	.	16g'/	.	.	.	16gg'\	.	16gg/	16gg\	.
.	.	.	.	.	.	.	.	.	.	.	.	.	.	.	16g'/JJ	.	.	.	16gg'\JJ	.	16gg/JJ	16gg\JJ	.
*	*	*	*	*	*	*	*	*rep	*	*rep	*	*	*	*	*	*	*	*	*Xtremolo	*	*Xtremolo	*Xtremolo	*
.	.	.	.	.	.	8GG/	.	8r	.	8r	.	8r	.	.	8g'/)	.	.	.	8gg\)	.	8gg/	8gg\	.
!	!	!	!	!	!	!	!	!	!	!LO:SIC:v:n=1:s=8fn	!	!	!	!	!	!	!	!	!	!	!	!	!
.	.	.	.	.	.	8r	.	8dL 8B\	.	8f#L 8G/	.	8ddL 8b'\	.	.	8r	.	.	.	8ddL 8b'\	.	8r	8r	.
!	!	!	!	!	!	!	!	!	!	!LO:SIC:v:n=1:s=8fn	!	!	!	!	!	!	!	!	!	!	!	!	!
.	.	.	.	.	.	8r	.	8dJ 8B\	.	8f#J 8G/	.	8ffJ 8dd'\	.	.	8r	.	.	.	8ffJ 8dd'\	.	8r	8r	.
*	*	*	*	*	*	*	*	*Xrep	*	*Xrep	*	*	*	*	*	*	*	*	*	*	*	*	*
*	*	*	*	*	*	*	*	*	*	*	*	*	*	*	*	*	*	*	*	*	*v	*v	*
!	!	!	!	!	!	!LO:PB:g=original	!	!LO:PB:g=original	!	!LO:PB:g=original	!	!LO:PB:g=original	!	!LO:PB:g=original	!LO:PB:g=original	!	!LO:PB:g=original	!	!LO:PB:g=original	!	!LO:PB:g=original	!
=31	=31	=31	=31	=31	=31	=31	=31	=31	=31	=31	=31	=31	=31	=31	=31	=31	=31	=31	=31	=31	=31	=31
!	!	!	!	!	!	!	!	!	!	!	!	!	!	!	!	!	!	!	!	!	!LO:TX:b:t=Picol	!
!	!	!	!	!	!	!	!	!	!	!	!	!	!	!	!	!	!	!	!	!	!LO:TX:a:t=Flaut	!
.	.	.	.	.	.	.	.	.	.	.	.	(8qqffn 8qqdd/	.	.	.	.	.	.	(8qqffn 8qqdd/	.	(8qqddd/ 8qqffn	.
2.r	.	2.r	.	2.r	.	8C/	.	8r	.	8r	.	8eeL 8cc\)	.	2.r	2.r	.	2.r	.	8eeL 8cc\)	.	8ccc\L) 8ee	.
.	.	.	.	.	.	8r	.	8c\L	.	8eL 8G/	.	8dd 8b'\	.	.	.	.	.	.	8dd 8b'\	.	8bb'\ 8dd	.
.	.	.	.	.	.	8r	.	8c\J	.	8eJ 8G/	.	8eeJ 8cc'\	.	.	.	.	.	.	8eeJ 8cc'\	.	8ccc'\J 8ee	.
*	*	*	*	*	*	*	*	*rep	*	*rep	*	*	*	*	*	*	*	*	*	*	*	*
.	.	.	.	.	.	8C/	.	8r	.	8r	.	8cc 8g/	.	.	.	.	.	.	8cc 8g'/	.	8gg\ 8cc	.
.	.	.	.	.	.	8r	.	8c\L	.	8eL 8G/	.	8eeL 8cc\	.	.	.	.	.	.	8eeL 8cc'\	.	8r	.
.	.	.	.	.	.	8r	.	8c\J	.	8eJ 8G/	.	8ffnJ 8dd\	.	.	.	.	.	.	8ffnJ 8dd'\	.	8r	.
*	*	*	*	*	*	*	*	*Xrep	*	*Xrep	*	*	*	*	*	*	*	*	*	*	*	*
=32	=32	=32	=32	=32	=32	=32	=32	=32	=32	=32	=32	=32	=32	=32	=32	=32	=32	=32	=32	=32	=32	=32
*	*	*	*	*	*	*	*	*	*	*	*	*	*	*	*	*	*	*	*	*	*^	*
*	*	*	*	*	*	*rep	*	*rep	*	*rep	*	*	*	*	*	*	*	*	*	*	*	*	*
2.r	.	2.r	.	2.r	.	8C/	.	8r	.	8r	.	8gg 8ee\	.	2.r	8r	.	2.r	.	8gg 8ee\	.	8r	8r	.
*	*	*	*	*	*	*	*	*	*	*	*	*	*	*	*tremolo	*	*	*	*tremolo	*	*tremolo	*tremolo	*
!	!	!	!	!	!	!	!	!	!	!	!	!	!	!	!	!	!	!	!	!	!LO:TX:b:t=P.	!	!
!	!	!	!	!	!	!	!	!	!	!	!	!	!	!	!	!	!	!	!	!	!LO:TX:a:t=F.	!	!
.	.	.	.	.	.	8r	.	8c\L	.	8eL 8G/	.	8r	.	.	(16gLL 16c'/	.	.	.	16eeLL 16cc'\	.	16ee\LL	16ccc/LL	.
.	.	.	.	.	.	.	.	.	.	.	.	.	.	.	16g 16c'/	.	.	.	16ee 16cc'\	.	16ee\	16ccc\	.
.	.	.	.	.	.	8r	.	8c\J	.	8eJ 8G/	.	8r	.	.	16g 16c'/	.	.	.	16ee 16cc'\	.	16ee\	16ccc/	.
.	.	.	.	.	.	.	.	.	.	.	.	.	.	.	16gJJ 16c'/	.	.	.	16eeJJ 16cc'\	.	16ee\JJ	16ccc\JJ	.
*	*	*	*	*	*	*	*	*	*	*	*	*	*	*	*Xtremolo	*	*	*	*	*	*	*	*
.	.	.	.	.	.	8C/	.	8r	.	8r	.	8r	.	.	8g 8c'/)	.	.	.	8ee 8cc\	.	8ee\	8ccc/	.
.	.	.	.	.	.	8r	.	8c\L	.	8eL 8G/	.	8eeL 8cc'\	.	.	8r	.	.	.	8eeL 8cc'\	.	8r	8r	.
.	.	.	.	.	.	8r	.	8c\J	.	8eJ 8G/	.	8ffnJ 8dd'\	.	.	8r	.	.	.	8ffnJ 8dd'\	.	8r	8r	.
*	*	*	*	*	*	*Xrep	*	*Xrep	*	*Xrep	*	*	*	*	*	*	*	*	*	*	*	*	*
*	*	*	*	*	*	*	*	*	*	*	*	*	*	*	*	*	*	*	*	*	*v	*v	*
=33	=33	=33	=33	=33	=33	=33	=33	=33	=33	=33	=33	=33	=33	=33	=33	=33	=33	=33	=33	=33	=33	=33
*	*	*	*	*	*	*rep	*	*rep	*	*rep	*	*	*	*	*	*	*	*	*	*	*	*
2.r	.	2.r	.	2.r	.	8C/	.	8r	.	8r	.	(4.aa (4.ffn\	.	2.r	2.r	.	2.r	.	(>4.aa (>4.ffn\	>	2.r	.
.	.	.	.	.	.	8r	.	8c\L	.	8eL 8G/	.	.	.	.	.	.	.	.	.	.	.	.
.	.	.	.	.	.	8r	.	8c\J	.	8eJ 8G/	.	.	.	.	.	.	.	.	.	.	.	.
.	.	.	.	.	.	8C/	.	8r	.	8r	.	8ggL 8ee\))	.	.	.	.	.	.	8gg 8ee\))	]	.	.
.	.	.	.	.	.	8r	.	8c\L	.	8eL 8G/	.	8ee 8cc'\	.	.	.	.	.	.	8eeL 8cc'\	.	.	.
.	.	.	.	.	.	8r	.	8c\J	.	8eJ 8G/	.	8ggJ 8ee'\	.	.	.	.	.	.	8ggJ 8ee'\	.	.	.
*	*	*	*	*	*	*Xrep	*	*Xrep	*	*Xrep	*	*	*	*	*	*	*	*	*	*	*	*
=34	=34	=34	=34	=34	=34	=34	=34	=34	=34	=34	=34	=34	=34	=34	=34	=34	=34	=34	=34	=34	=34	=34
*	*	*	*	*	*	*	*	*	*	*	*	*	*	*	*	*	*	*	*	*	*^	*
*	*	*tremolo	*	*	*	*	*	*	*	*	*	*	*	*	*	*	*	*	*	*	*	*	*
!	!	!	!	!LO:TX:a:t=1.	!	!	!	!	!	!	!	!	!	!	!	!	!	!	!	!	!	!	!
4r	.	16ee\LL	.	2.r	.	8G\	.	8r	.	8r	.	8ffn 8dd'\	.	2.r	8r	.	2.r	.	8ffn 8dd\	.	8r	8ryy	.
.	.	16ee\	.	.	.	.	.	.	.	.	.	.	.	.	.	.	.	.	.	.	.	.	.
*	*	*	*	*	*	*	*	*	*	*	*	*	*	*	*tremolo	*	*	*	*	*	*	*	*
!	!	!	!	!	!	!	!	!	!	!LO:SIC:v:n=1:s=8fn	!	!	!	!	!	!	!	!	!	!	!	!	!
.	.	16ee\	.	.	.	8r	.	8dL 8B\	.	8f#L 8G/	.	8r	.	.	(16g'/LL	.	.	.	16gg\LL	.	16gg'/LL	16gg\LL	.
.	.	16ee\	.	.	.	.	.	.	.	.	.	.	.	.	16g'/	.	.	.	16gg\	.	16gg'/	16gg\	.
!	!	!	!	!	!	!	!	!	!	!LO:SIC:v:n=1:s=8fn	!	!	!	!	!	!	!	!	!	!	!	!	!
8r	.	16ee\	.	.	.	8r	.	8dJ 8B\	.	8f#J 8G/	.	8r	.	.	16g'/	.	.	.	16gg\	.	16gg'/	16gg\	.
.	.	16ee\JJ	.	.	.	.	.	.	.	.	.	.	.	.	16g'/JJ	.	.	.	16gg\JJ	.	16gg'/JJ	16gg\JJ	.
*	*	*Xtremolo	*	*	*	*	*	*	*	*rep	*	*	*	*	*Xtremolo	*	*	*	*Xtremolo	*	*Xtremolo	*Xtremolo	*
8C/	.	8ee\	.	.	.	8GG/	.	8r	.	8r	.	8r	.	.	8g'/)	.	.	.	8gg\	.	8gg'/	8gg\	.
!	!	!	!	!	!	!	!	!	!	!LO:SIC:v:n=1:s=8fn	!	!	!	!	!	!	!	!	!	!	!	!	!
8r	.	8r	.	.	.	8r	.	8dL 8B\	.	8f#L 8G/	.	8ffnL 8dd\	f	.	8r	.	.	.	8ffnL 8dd\	f	8r	8ryy	.
!	!	!	!	!	!	!	!	!	!	!LO:SIC:v:n=1:s=8fn	!	!	!	!	!	!	!	!	!	!	!	!	!
8ryy	.	8r	.	.	.	8r	f	8dJ 8B\	.	8f#J 8G/	.	8ddJ 8g\	.	.	8r	.	.	.	8ddJ 8g\	.	8r	8ryy	.
*	*	*	*	*	*	*	*	*	*	*Xrep	*	*	*	*	*	*	*	*	*	*	*	*	*
*	*	*	*	*	*	*	*	*	*	*	*	*	*	*	*	*	*	*	*	*	*v	*v	*
!LO:LB:g=original	!	!LO:LB:g=original	!	!LO:LB:g=original	!	!	!	!	!	!	!	!	!	!	!	!	!	!	!	!	!	!
=35	=35	=35	=35	=35	=35	=35	=35	=35	=35	=35	=35	=35	=35	=35	=35	=35	=35	=35	=35	=35	=35	=35
*	*	*	*	*	*	*	*	*	*	*	*	*	*	*	*	*	*	*	*^	*	*	*
*	*	*	*	*	*	*	*	*tremolo	*	*tremolo	*	*tremolo	*	*	*	*	*tremolo	*	*	*	*	*	*
!LO:TX:a:t=7.	!	!LO:TX:a:t=7.	!	!LO:TX:a:t=7.	!	!	!	!	!	!	!	!LO:TX:a:t=Unis[ono]	!	!	!	!	!	!	!	!	!	!	!
2.r	.	2.r	.	2.r	.	8C\L	.	8c\L	.	8eL 8G/	f	16cc\LL	.	8C\L	4r	.	8gL 8e\	.	8cc/L	8cc\L	.	8ccc\L	.
.	.	.	.	.	.	.	.	.	.	.	.	16cc\	.	.	.	.	.	.	.	.	.	.	.
.	.	.	.	.	.	8E\	.	8c\	.	8e 8G/	.	16g\	.	8E\	.	.	8g 8e\	.	8g/	8g\	.	8gg\	.
.	.	.	.	.	.	.	.	.	.	.	.	16g\	.	.	.	.	.	.	.	.	.	.	.
.	.	.	.	.	.	8G\J	.	8c\J	.	8eJ 8G/	.	16ee\	.	8G\J	8r	.	8gJ 8e\	.	8ee/J	8ee\J	.	8eee\J	.
.	.	.	.	.	.	.	.	.	.	.	.	16ee\JJ	.	.	.	.	.	.	.	.	.	.	.
*	*	*	*	*	*	*	*	*Xtremolo	*	*Xtremolo	*	*Xtremolo	*	*	*	*	*Xtremolo	*	*	*	*	*	*
.	.	.	.	.	.	8C/	.	8c\	.	8e 8G/	.	8cc\	.	8C/	8r	.	8g 8e\	.	8cc/	8cc\	.	8ccc\	.
.	.	.	.	.	.	8r	.	8r	.	8r	.	8r	.	8r	8e'/L	.	8r	.	8r	8ryy	.	8r	.
.	.	.	.	.	.	8r	.	8r	.	8r	.	8r	.	8r	8e-X'/J	.	8r	.	8r	8ryy	.	8r	.
*	*	*	*	*	*	*	*	*	*	*	*	*	*	*	*	*	*	*	*v	*v	*	*	*
!	!	!	!	!	!	!LO:LB:g=original	!	!LO:LB:g=original	!	!LO:LB:g=original	!	!LO:LB:g=original	!	!LO:LB:g=original	!LO:LB:g=original	!	!LO:LB:g=original	!	!LO:LB:g=original	!LO:LB:g=original	!	!LO:LB:g=original
=36	=36	=36	=36	=36	=36	=36	=36	=36	=36	=36	=36	=36	=36	=36	=36	=36	=36	=36	=36	=36	=36	=36
2.ryy	.	2.ryy	.	2.ryy	.	8GG/yy	.	8ryy	.	8ryy	.	2.ryy	.	2.ryy	8d/L	.	2.ryyyy	.	2.ryy	.	2.ryy	.
.	.	.	.	.	.	8ryy	.	8G/Lyy	.	8dyyL 8B/yy	.	.	.	.	8b'/	.	.	.	.	.	.	.
.	.	.	.	.	.	8ryy	.	8G/Jyy	.	8dyyJ 8B/yy	.	.	.	.	8g'/J	.	.	.	.	.	.	.
*	*	*	*	*	*	*	*	*	*	*rep	*	*	*	*	*	*	*	*	*	*	*	*
.	.	.	.	.	.	8G\yy	.	8ryy	.	8ryy	.	.	.	.	4dd\	.	.	.	.	.	.	.
.	.	.	.	.	.	8ryy	.	8G/Lyy	.	8dyyL 8B/yy	.	.	.	.	.	.	.	.	.	.	.	.
.	.	.	.	.	.	8ryy	.	8G/Jyy	.	8dyyJ 8B/yyyy	.	.	.	.	8ee\	.	.	.	.	.	.	.
*	*	*	*	*	*	*	*	*	*	*Xrep	*	*	*	*	*	*	*	*	*	*	*	*
=37	=37	=37	=37	=37	=37	=37	=37	=37	=37	=37	=37	=37	=37	=37	=37	=37	=37	=37	=37	=37	=37	=37
*	*	*	*	*	*	*rep	*	*rep	*	*rep	*	*	*	*	*	*	*	*	*	*	*	*
.	.	.	.	.	.	.	.	.	.	.	.	.	.	.	(8qee/	.	.	.	.	.	.	.
2.ryy	.	2.ryy	.	2.ryy	.	8GG/yy	.	8ryy	.	8ryy	.	2.ryy	.	2.ryy	8.dd\L)	.	2.ryyyy	.	2.ryy	.	2.ryy	.
.	.	.	.	.	.	8ryy	.	8G/Lyy	.	8dyyL 8B/yy	.	.	.	.	.	.	.	.	.	.	.	.
.	.	.	.	.	.	.	.	.	.	.	.	.	.	.	16cc#X\K|	.	.	.	.	.	.	.
.	.	.	.	.	.	8ryy	.	8G/Jyy	.	8dyyJ 8B/yy	.	.	.	.	8dd\J|	.	.	.	.	.	.	.
.	.	.	.	.	.	8G\yy	.	8ryy	.	8ryy	.	.	.	.	8b\L|	.	.	.	.	.	.	.
.	.	.	.	.	.	8ryy	.	8G/Lyy	.	8dyyL 8B/	.	.	.	.	8r	.	.	.	.	.	.	.
.	.	.	.	.	.	8ryy	.	8G/Jyy	.	8dyyJ 8B/	.	.	.	.	8b\J|	.	.	.	.	.	.	.
*	*	*	*	*	*	*Xrep	*	*Xrep	*	*Xrep	*	*	*	*	*	*	*	*	*	*	*	*
=38	=38	=38	=38	=38	=38	=38	=38	=38	=38	=38	=38	=38	=38	=38	=38	=38	=38	=38	=38	=38	=38	=38
.	.	.	.	.	.	.	.	.	.	.	.	.	.	.	(8qdd/	.	.	.	.	.	.	.
2.ryy	.	2.ryy	.	2.ryy	.	8D\yy	.	8ryy	.	8ryy	.	2.ryy	.	2.ryy	8.ccn\L)	.	2.ryyyy	.	2.ryy	.	2.ryy	.
!	!	!	!	!	!	!	!	!	!	!LO:SIC:v:n=2:s=8cn	!	!	!	!	!	!	!	!	!	!	!	!
.	.	.	.	.	.	8ryy	.	8AyyL 8F#/yy	.	8dyyL 8c#/yy	.	.	.	.	.	.	.	.	.	.	.	.
.	.	.	.	.	.	.	.	.	.	.	.	.	.	.	16b\K|	.	.	.	.	.	.	.
!	!	!	!	!	!	!	!	!	!	!LO:SIC:v:n=2:s=8cn	!	!	!	!	!	!	!	!	!	!	!	!
.	.	.	.	.	.	8ryy	.	8AyyJ 8F#/yy	.	8dyyJ 8c#/yy	.	.	.	.	8cc\J|	.	.	.	.	.	.	.
*	*	*	*	*	*	*	*	*rep	*	*rep	*	*	*	*	*	*	*	*	*	*	*	*
.	.	.	.	.	.	8D\yy	.	8ryy	.	8ryy	.	.	.	.	8a/L|	.	.	.	.	.	.	.
!	!	!	!	!	!	!	!	!	!	!LO:SIC:v:n=2:s=8cn	!	!	!	!	!	!	!	!	!	!	!	!
.	.	.	.	.	.	8ryy	.	8AyyL 8F#/yy	.	8dyyL 8c#/yy	.	.	.	.	8r	.	.	.	.	.	.	.
!	!	!	!	!	!	!	!	!	!	!LO:SIC:v:n=2:s=8cn	!	!	!	!	!	!	!	!	!	!	!	!
.	.	.	.	.	.	8ryy	.	8AyyJ 8F#/yy	.	8dyyJ 8c#/yy	.	.	.	.	8a/J|	.	.	.	.	.	.	.
*	*	*	*	*	*	*	*	*Xrep	*	*Xrep	*	*	*	*	*	*	*	*	*	*	*	*
!	!	!	!	!	!	!LO:LB:g=original	!	!LO:LB:g=original	!	!LO:LB:g=original	!	!LO:LB:g=original	!	!LO:LB:g=original	!LO:LB:g=original	!	!LO:LB:g=original	!	!LO:LB:g=original	!	!LO:LB:g=original	!
=39	=39	=39	=39	=39	=39	=39	=39	=39	=39	=39	=39	=39	=39	=39	=39	=39	=39	=39	=39	=39	=39	=39
*	*	*	*	*	*	*k[f#]	*	*k[f#]	*	*k[f#]	*	*k[f#]	*	*	*k[f#]	*	*	*	*	*	*	*
!	!	!	!	!	!	!	!	!	!	!	!	!	!	!	!LO:TX:a:t=Tromba	!	!	!	!	!	!	!
2.ryy	.	2.ryy	.	2.ryy	.	8GG/yy	.	8ryy	.	8ryy	.	4ryy	.	2.ryy	8g/L	.	2.ryy	.	2.ryy	.	4ryy	.
.	.	.	.	.	.	8ryy	.	8G/Lyy	.	8dyyL 8B/yy	.	.	.	.	8b/	.	.	.	.	.	.	.
.	.	.	.	.	.	8ryy	.	8G/Jyy	.	8dyyJ 8B/yy	.	8ryy	.	.	8f#/J	.	.	.	.	.	8ryy	.
*	*	*	*	*	*	*	*	*rep	*	*rep	*	*	*	*	*	*	*	*	*	*	*	*
.	.	.	.	.	.	8G\yy	.	8ryy	.	8ryy	.	8ryy	.	.	8g/	.	.	.	.	.	8ryy	.
*	*	*	*	*	*	*	*	*	*	*	*	*	*	*	*	*	*	*	*	*	*8ba	*
!	!	!	!	!	!	!	!	!	!	!	!	!	!	!	!	!	!	!	!	!	!LO:TX:a:t=flaut	!
.	.	.	.	.	.	8ryy	.	8G/Lyy	.	8dyyL 8B/	.	8e'/L	.	.	8ryy	.	.	.	.	.	8e'\Lyy	.
.	.	.	.	.	.	8ryy	.	8G/Jyy	.	8dyyJ 8B/	.	[8d'/J	.	.	8ryy	.	.	.	.	.	[8d\Jyy	.
*	*	*	*	*	*	*	*	*Xrep	*	*Xrep	*	*	*	*	*	*	*	*	*	*	*	*
=40	=40	=40	=40	=40	=40	=40	=40	=40	=40	=40	=40	=40	=40	=40	=40	=40	=40	=40	=40	=40	=40	=40
!	!	!	!	!	!	!	!LO:DY:rj	!	!	!	!LO:DY:rj	!	!	!	!	!	!	!	!	!LO:DY:rj	!	!
2.ryy	.	2.ryy	.	2.ryy	.	8GG/yy	mf	8ryy	.	8ryy	mf	8d/L]	.	2.ryy	2.ryy	.	[2.dyy [yy2.D/yy	.	[2.dyy [>yyv2.B/yy	mf	8d\L]yy	.
.	.	.	.	.	.	8ryy	.	8dyyL 8G/yy	.	8gyyL 8B/yy	.	8b'/	.	.	.	.	.	.	.	.	8b'\yy	.
.	.	.	.	.	.	8ryy	.	8dyyJ 8G/yy	.	8gyyJ 8B/yy	.	8g'/J	.	.	.	.	.	.	.	.	8g'\Jyy	.
*	*	*	*	*	*	*	*	*rep	*	*rep	*	*	*	*	*	*	*	*	*	*	*	*
.	.	.	.	.	.	8GG/yy	.	8ryy	.	8ryy	.	4dd\	.	.	.	.	.	.	.	.	4dd'\yy	.
.	.	.	.	.	.	8ryy	.	8dyyL 8G/yyyy	.	8gyyL 8B/yyyy	.	.	.	.	.	.	.	.	.	.	.	.
.	.	.	.	.	.	8ryy	.	8dyyJ 8G/yy	.	8gyyJ 8B/yy	.	8dd#\	.	.	.	.	.	.	.	.	8ee'\yy	.
*	*	*	*	*	*	*	*	*Xrep	*	*Xrep	*	*	*	*	*	*	*	*	*	*	*	*
!	!	!	!	!	!	!LO:PB:g=original	!	!LO:PB:g=original	!	!LO:PB:g=original	!	!LO:PB:g=original	!	!LO:PB:g=original	!LO:PB:g=original	!	!LO:PB:g=original	!	!LO:PB:g=original	!	!LO:PB:g=original	!
=41	=41	=41	=41	=41	=41	=41	=41	=41	=41	=41	=41	=41	=41	=41	=41	=41	=41	=41	=41	=41	=41	=41
*	*	*	*	*	*	*rep	*	*rep	*	*rep	*	*	*	*	*	*	*	*	*	*	*	*
.	.	.	.	.	.	.	.	.	.	.	.	.	.	.	.	.	.	.	.	.	8qee/yy	.
2.ryy	.	2.ryy	.	2.ryy	.	8GG/yy	.	8ryy	.	8ryy	.	4ee\	.	2.ryy	2.ryy	.	2.d]yy 2.D/]yy	.	2.d]yy 2.B/]yy	.	8.dd\Lyy	.
.	.	.	.	.	.	8ryy	.	8dyyL 8G/	.	8gyyL 8B/	.	.	.	.	.	.	.	.	.	.	.	.
!	!	!	!	!	!	!	!	!	!	!	!	!|	!	!	!	!	!	!	!	!	!	!
.	.	.	.	.	.	.	.	.	.	.	.	.	.	.	.	.	.	.	.	.	16cc#X\Kyy	.
.	.	.	.	.	.	8ryy	.	8dyyJ 8G/	.	8gyyJ 8B/	.	8b\	.	.	.	.	.	.	.	.	8dd\Jyy	.
.	.	.	.	.	.	8GG/yy	.	8ryy	.	8ryy	.	8dd\L	.	.	.	.	.	.	.	.	8b\Lyy	.
.	.	.	.	.	.	8ryy	.	8dyyL 8G/	.	8gyyL 8B/	.	8ccn	.	.	.	.	.	.	.	.	8ryy	.
.	.	.	.	.	.	8ryy	.	8dyyJ 8G/	.	8gyyJ 8B/	.	8a\J	.	.	.	.	.	.	.	.	8b\Jyy	.
*	*	*	*	*	*	*Xrep	*	*Xrep	*	*Xrep	*	*	*	*	*	*	*	*	*	*	*X8ba	*
=42	=42	=42	=42	=42	=42	=42	=42	=42	=42	=42	=42	=42	=42	=42	=42	=42	=42	=42	=42	=42	=42	=42
*	*	*	*	*	*	*	*	*	*	*	*	*	*	*	*	*	*	*	*^	*	*	*
*	*	*	*	*	*	*	*	*	*	*	*	*	*	*	*	*	*	*	*	*2\right	*	*	*
!	!	!	!	!	!	!	!LO:DY:rj	!	!LO:DY:rj	!	!LO:DY:rj	!	!LO:DY:rj	!	!	!	!	!	!	!	!	!LO:TX:a:t=Picolo	!LO:DY:rj
2.ryy	.	2.ryy	.	2.ryy	.	8AA/yy	fyy	8ryy	fyy	8ryy	fyy	8g'\L	f	2.ryy	2.ryy	.	2.f#yy 2.A/yy	fyy	8A'/Lyy	2.d\yy	.	8a'\Lyy	fyy
.	.	.	.	.	.	8ryy	.	8d\Lyy	.	8f#yyL 8A/yy	.	16b'\	.	.	.	.	.	.	8f#'/yy	.	.	8ff#'\yy	.
.	.	.	.	.	.	.	.	.	.	.	.	16ee	.	.	.	.	.	.	.	.	.	.	.
.	.	.	.	.	.	8ryy	.	8d\Jyy	.	8f#yyJ 8A/yy	.	8dd'\J	.	.	.	.	.	.	8d'/Jyy	.	.	8dd'\Jyy	.
*	*	*	*	*	*	*	*	*rep	*	*rep	*	*	*	*	*	*	*	*	*	*	*	*	*
.	.	.	.	.	.	8AA/yy	.	8ryy	.	8ryy	.	(8dd\L	.	.	.	.	.	.	(4a/yy	.	.	(4aa\yy	.
.	.	.	.	.	.	8ryy	.	8d\Lyy	.	8f#yyL 8A/yy	.	8cc)	.	.	.	.	.	.	.	.	.	.	.
.	.	.	.	.	.	8ryy	.	8d\Jyy	.	8f#yyJ 8A/yy	.	[>8a\J	.	.	.	.	.	.	8a#X/)yy	.	.	8aa#X\)yy	.
*	*	*	*	*	*	*	*	*Xrep	*	*Xrep	*	*	*	*	*	*	*	*	*	*	*	*	*
=43	=43	=43	=43	=43	=43	=43	=43	=43	=43	=43	=43	=43	=43	=43	=43	=43	=43	=43	=43	=43	=43	=43	=43
!	!	!	!	!	!	!	!	!	!	!	!	!LO:SIC:v:s=16ccc#	!	!	!	!	!	!	!	!	!	!	!
*	*	*	*	*	*	*	*	*	*	*	*	*	*	*	*	*	*	*	*	*	*	*	*
4r	.	4r	.	4r	.	8AA/yy	.	8ryy	.	8ryy	.	16a]/LL	.	4.AA/yy	4ryy	.	4.gyy 4.A\yy	.	(16cc#X/LLyy	(4.c#X\yy	.	(16ccc#X\LLyy	.
.	.	.	.	.	.	.	.	.	.	.	.	16g/	.	.	.	.	.	.	16b/yy	.	.	16bb\yy	.
.	.	.	.	.	.	8ryy	.	8eyyL 8c#X\yy	.	8gyyL 8A/yy	.	16f#/	.	.	.	.	.	.	16a#X/yy	.	.	16aa#X\yy	.
.	.	.	.	.	.	.	.	.	.	.	.	16g\	.	.	.	.	.	.	16b/yy	.	.	16bb\yy	.
8r	.	8r	.	8r	.	8ryy	.	8eyyJ 8c#\yy	.	8gyyJ 8A/yy	.	16b\	.	.	8ryy	.	.	.	16g/yy	.	.	16gg\yy	.
.	.	.	.	.	.	.	.	.	.	.	.	16dd/JJ)	.	.	.	.	.	.	16e/JJyy	.	.	16ee\JJyy	.
*	*	*o	*	*	*	*	*	*	*	*	*	*	*	*	*	*	*	*	*	*	*	*	*
!	!LO:DY:a	!LO:TX:a:t=fine	!	!	!	!	!	!	!	!	!	!	!	!	!	!	!	!	!	!	!	!	!
8C/	f	8ee\	.	8C/	.	8D/yy	.	8d\yy	.	8f#yy 8A/yy	.	8gg\ 8b	.	8D/yy	4ryy	.	8f#yy 8D\yy	.	8d/)yy	8d\)yy	.	8dd\)yy	.
!	!	!	!	!	!	!	!	!	!	!	!	!LO:TX:b:t=fine	!	!	!	!	!	!	!	!	!	!	!
8r	.	8r	.	8r	.	8ryy	.	8ryy	.	8ryy	.	8r	.	8ryy	.	.	8ryy	.	8ryy	8ryyyy	.	8ryy	.
*	*	*	*	*	*	*	*	*	*	*	*	*	*	*	*	*	*	*	*v	*v	*	*	*
==:|!	==:|!	==:|!	==:|!	==:|!	==:|!	==:|!	==:|!	==:|!	==:|!	==:|!	==:|!	==:|!	==:|!	==:|!	==:|!	==:|!	==:|!	==:|!	==:|!	==:|!	==:|!	==:|!
*-	*-	*-	*-	*-	*-	*-	*-	*-	*-	*-	*-	*-	*-	*-	*-	*-	*-	*-	*-	*-	*-	*-
!!!system-decoration: s1,s2,s3,s4,s5[(s6,s7,s8,s9)][(s10,s11,s12)]
!!!RDF**kern: > = above
!!!RDF**kern: < = below
!!!EED: Leszek Kubiak
!!!EST: 2021-05-31
!!!ENC: Krzysztof Stępień
!!!END: 2021-04-16
!!!RDF**kern: | = vertical stroke
